LucasHints/Assets.xcassets/glyphs/building/castle.imageset/castle.svg

<svg enable-background="new 0 0 122.88 121.71" viewBox="0 0 122.88 121.71" xmlns="http://www.w3.org/2000/svg"><path clip-rule="evenodd" d="m74.63 71.74.13-24.69 5.21-7.65-.12-8.21c0-.23-.19-.42-.42-.42h-16.12v-9.44l22-8.91-22-8.83v-1.85c0-2.32-3.52-2.32-3.52 0v29.04h-15.18c-.23 0-.42.19-.42.42l-.12 8.21 5.53 7.49v24.85h-6.49v-7.4h-12.47l.04-8.39 5.21-7.65-.12-8.21c0-.23-.19-.42-.42-.42h-34.81c-.23 0-.42.19-.42.42l-.12 8.2 5.53 7.49v65.92h24.69.12 20.12v-25.21c0-6.28 5.14-11.43 11.43-11.43 6.28 0 11.43 5.14 11.43 11.43v25.22h19.2.12 24.69l.35-65.76 5.21-7.65-.12-8.21c0-.23-.19-.42-.42-.42h-34.83c-.23 0-.42.19-.42.42l-.12 8.21 5.53 7.49v8.55h-12.3v7.4h-5.58zm-12.61-32.99c2.59 0 4.69 2.1 4.69 4.69s-2.1 4.69-4.69 4.69-4.69-2.1-4.69-4.69c-.01-2.58 2.09-4.69 4.69-4.69zm42.91 7.33c2.59 0 4.69 2.1 4.69 4.69s-2.1 4.69-4.69 4.69-4.69-2.1-4.69-4.69 2.1-4.69 4.69-4.69zm-48.26 15.57h10.69c.15 0 .27.12.27.27v9.55c0 .15-.12.27-.27.27h-10.69c-.15 0-.27-.12-.27-.27v-9.55c0-.14.12-.27.27-.27zm-38.72-15.57c2.59 0 4.69 2.1 4.69 4.69s-2.1 4.69-4.69 4.69-4.69-2.1-4.69-4.69c-.01-2.59 2.1-4.69 4.69-4.69z" fill-rule="evenodd"/></svg>

<?xml version="1.0" encoding="utf-8"?><svg version="1.1" id="Layer_1" xmlns="http://www.w3.org/2000/svg" xmlns:xlink="http://www.w3.org/1999/xlink" x="0px" y="0px" viewBox="0 0 122.88 121.71" style="enable-background:new 0 0 122.88 121.71" xml:space="preserve"><style type="text/css">.st0{fill-rule:evenodd;clip-rule:evenodd;}</style><g><path class="st0" d="M74.63,71.74l0.13-24.69l5.21-7.65l-0.12-8.21c0-0.23-0.19-0.42-0.42-0.42H63.31v-9.44l22-8.91l-22-8.83V1.74 c0-2.32-3.52-2.32-3.52,0v29.04H44.61c-0.23,0-0.42,0.19-0.42,0.42l-0.12,8.21l5.53,7.49v24.85h-6.49v-7.4H30.64l0.04-8.39 l5.21-7.65l-0.12-8.21c0-0.23-0.19-0.42-0.42-0.42H0.54c-0.23,0-0.42,0.19-0.42,0.42L0,48.3l5.53,7.49v65.92h24.69h0.12h20.12V96.5 c0-6.28,5.14-11.43,11.43-11.43h0c6.28,0,11.43,5.14,11.43,11.43v25.22h19.2h0.12h24.69l0.35-65.76l5.21-7.65l-0.12-8.21 c0-0.23-0.19-0.42-0.42-0.42H87.52c-0.23,0-0.42,0.19-0.42,0.42l-0.12,8.21l5.53,7.49v8.55H80.21v7.4H74.63L74.63,71.74z M62.02,38.75c2.59,0,4.69,2.1,4.69,4.69c0,2.59-2.1,4.69-4.69,4.69c-2.59,0-4.69-2.1-4.69-4.69 C57.32,40.86,59.42,38.75,62.02,38.75L62.02,38.75z M104.93,46.08c2.59,0,4.69,2.1,4.69,4.69c0,2.59-2.1,4.69-4.69,4.69 c-2.59,0-4.69-2.1-4.69-4.69C100.24,48.18,102.34,46.08,104.93,46.08L104.93,46.08z M56.67,61.65h10.69c0.15,0,0.27,0.12,0.27,0.27 v9.55c0,0.15-0.12,0.27-0.27,0.27H56.67c-0.15,0-0.27-0.12-0.27-0.27v-9.55C56.4,61.78,56.52,61.65,56.67,61.65L56.67,61.65z M17.95,46.08c2.59,0,4.69,2.1,4.69,4.69c0,2.59-2.1,4.69-4.69,4.69c-2.59,0-4.69-2.1-4.69-4.69 C13.25,48.18,15.36,46.08,17.95,46.08L17.95,46.08z"/></g></svg>
